images/bk.svg

<?xml version="1.0" encoding="UTF-8" standalone="no"?><!DOCTYPE svg PUBLIC "-//W3C//DTD SVG 1.1//EN" "http://www.w3.org/Graphics/SVG/1.1/DTD/svg11.dtd"><svg width="100%" height="100%" viewBox="0 0 57 57" version="1.1" xmlns="http://www.w3.org/2000/svg" xmlns:xlink="http://www.w3.org/1999/xlink" xml:space="preserve" xmlns:serif="http://www.serif.com/" style="fill-rule:evenodd;clip-rule:evenodd;"><ellipse id="cir_1" cx="28.985" cy="29.244" rx="24.985" ry="25.244" style="fill:#666;"/><circle id="cir_11" serif:id="cir_1" cx="28.5" cy="28.5" r="24.5" style="fill:#fafafa;"/><circle id="cir_2" cx="28.5" cy="28.5" r="22.05" style="fill:#fafafa;stroke:#000;stroke-width:2px;"/><g><path d="M22.02,14.625c-0.267,0.104 -0.237,0.95 0.03,1.336c0.341,0.475 0.519,2.092 0.519,4.66l0,2.33l-0.474,0.074c-1.544,0.267 -2.805,0.43 -2.85,0.386c-0.015,-0.03 0.045,-0.995 0.149,-2.137c0.104,-1.143 0.163,-2.197 0.118,-2.33c-0.089,-0.312 -0.994,-1.039 -1.736,-1.395c-0.445,-0.208 -0.608,-0.223 -0.935,-0.074c-0.356,0.163 -0.386,0.222 -0.267,0.727c0.074,0.297 0.134,1.276 0.134,2.181c0,1.262 -0.075,1.915 -0.357,2.924c-0.311,1.157 -0.326,1.35 -0.148,1.781c0.238,0.564 1.128,1.602 1.38,1.602c0.104,0 0.46,-0.207 0.802,-0.46c0.549,-0.4 2.671,-1.261 3.784,-1.528l0.4,-0.089l0,2.137c0,2.092 0,2.137 -0.326,2.211c-1.395,0.356 -4.779,0.712 -5.817,0.638c-1.277,-0.104 -1.573,0 -1.573,0.594c0,0.415 1.217,1.691 1.899,2.003c0.579,0.252 0.609,0.534 0.119,1.796c-0.757,2.018 -1.825,3.754 -3.309,5.327c-1.128,1.202 -0.624,1.677 0.92,0.861c2.122,-1.113 3.606,-2.731 4.852,-5.298c0.342,-0.712 0.831,-1.618 1.069,-2.018c0.386,-0.638 0.415,-0.772 0.267,-1.173c-0.089,-0.252 -0.163,-0.46 -0.134,-0.474c0.015,-0.015 0.46,-0.179 0.98,-0.342l0.95,-0.326l-0.104,2.389c-0.06,1.306 -0.208,2.953 -0.327,3.665c-0.415,2.301 -0.415,2.746 -0.074,3.859c0.534,1.766 1.187,2.226 1.989,1.395c0.92,-0.965 0.905,-0.698 0.934,-10.64c0.03,-9.201 0.179,-12.718 0.594,-14.158c0.327,-1.128 0.134,-1.514 -1.024,-2.092c-0.846,-0.416 -1.885,-0.564 -2.434,-0.342Z" style="fill-rule:nonzero;"/><path d="M32.112,14.032c-0.104,0.029 -0.193,0.282 -0.193,0.534c0,0.979 -1.084,2.508 -3.458,4.897c-1.321,1.321 -1.573,1.647 -1.44,1.826c0.297,0.341 0.906,0.237 2.152,-0.386l1.173,-0.594l1.216,1.187c0.728,0.713 1.336,1.188 1.514,1.188c0.49,0 1.069,-0.609 1.173,-1.217c0.133,-0.861 -0.193,-1.232 -1.47,-1.618c-1.306,-0.415 -1.291,-0.401 -0.979,-0.638c0.148,-0.104 0.935,-0.237 1.796,-0.282c0.831,-0.059 2.003,-0.208 2.597,-0.341c0.593,-0.134 1.127,-0.208 1.172,-0.164c0.044,0.045 -0.134,0.446 -0.401,0.876c-1.81,2.938 -5.491,6.262 -9.141,8.236c-0.98,0.534 -1.336,0.802 -1.365,1.054c-0.03,0.193 0.044,0.371 0.178,0.415c0.756,0.282 4.555,-1.217 6.618,-2.611c0.505,-0.342 0.935,-0.594 0.95,-0.564c0.252,0.385 0.905,2.508 0.787,2.582c-0.075,0.044 -5.254,0.549 -7.228,0.712c-1.187,0.089 -2.24,0.223 -2.329,0.282c-0.104,0.074 -0.193,0.282 -0.193,0.475c0,0.401 0.771,0.92 1.973,1.321c0.668,0.222 0.802,0.222 2.523,-0.119c2.315,-0.475 5.313,-0.727 5.491,-0.49c0.178,0.267 -0.015,6.263 -0.237,7.346c-0.282,1.291 -0.327,1.321 -1.633,1.083c-2.597,-0.489 -2.627,-0.267 -0.282,2.167c1.336,1.395 1.84,1.825 2.137,1.825c0.831,0 2.182,-1.38 2.508,-2.567c0.119,-0.445 0.134,-1.974 0.059,-5.417l-0.103,-4.793l2.864,0.045c3.131,0.044 3.546,-0.03 3.546,-0.683c0,-0.49 -0.816,-1.172 -1.855,-1.558c-0.994,-0.371 -1.142,-0.371 -2.968,-0.074c-0.786,0.133 -1.454,0.222 -1.484,0.178c-0.029,-0.03 -0.014,-0.431 0.06,-0.876c0.222,-1.41 -0.252,-1.974 -1.944,-2.285l-0.534,-0.104l1.187,-1.128c0.653,-0.638 1.781,-1.84 2.493,-2.701c0.712,-0.861 1.647,-1.84 2.063,-2.196c0.415,-0.356 0.756,-0.742 0.756,-0.846c0,-0.668 -2.211,-2.152 -3.19,-2.152c-0.252,0 -1.083,0.193 -1.84,0.445c-1.455,0.46 -2.39,0.683 -2.39,0.549c0,-0.044 0.238,-0.222 0.52,-0.4c1.053,-0.653 0.534,-1.648 -1.158,-2.211c-0.89,-0.312 -1.335,-0.357 -1.691,-0.208Z" style="fill-rule:nonzero;"/><path d="M31.34,22.698c-0.549,0.223 -3.918,0.876 -4.511,0.876c-0.282,0 -0.594,0.104 -0.698,0.223c-0.386,0.46 1.054,2.151 1.825,2.151c0.327,0 1.024,-0.356 2.627,-1.335c1.499,-0.906 2.152,-1.514 2.033,-1.84c-0.104,-0.268 -0.712,-0.297 -1.276,-0.075Z" style="fill-rule:nonzero;"/><path d="M27.556,32.122c-0.134,0.118 -0.238,0.311 -0.238,0.415c0,0.356 1.647,2.835 2.3,3.458c0.713,0.697 1.128,0.787 1.855,0.416c0.742,-0.386 0.906,-1.677 0.357,-2.776c-0.268,-0.504 -0.92,-0.905 -2.315,-1.365c-1.321,-0.445 -1.648,-0.475 -1.959,-0.148Z" style="fill-rule:nonzero;"/></g></svg>

<?xml version="1.0" encoding="UTF-8" standalone="no"?>
<!DOCTYPE svg PUBLIC "-//W3C//DTD SVG 1.1//EN" "http://www.w3.org/Graphics/SVG/1.1/DTD/svg11.dtd">
<svg width="100%" height="100%" viewBox="0 0 57 57" version="1.1" xmlns="http://www.w3.org/2000/svg" xmlns:xlink="http://www.w3.org/1999/xlink" xml:space="preserve" xmlns:serif="http://www.serif.com/" style="fill-rule:evenodd;clip-rule:evenodd;">
    <g id="cir_1" transform="matrix(1.0198,0,0,1.03035,-0.0791987,-0.121408)">
        <circle cx="28.5" cy="28.5" r="24.5" style="fill:rgb(119,119,119);"/>
    </g>
    <circle id="cir_11" serif:id="cir_1" cx="28.5" cy="28.5" r="24.5" style="fill:rgb(250,250,250);"/>
    <circle id="cir_2" cx="28.5" cy="28.5" r="22.05" style="fill:rgb(250,250,250);stroke:black;stroke-width:2px;"/>
    <g>
        <path d="M22.02,14.625C21.753,14.729 21.783,15.575 22.05,15.961C22.391,16.436 22.569,18.053 22.569,20.621L22.569,22.951L22.095,23.025C20.551,23.292 19.29,23.455 19.245,23.411C19.23,23.381 19.29,22.416 19.394,21.274C19.498,20.131 19.557,19.077 19.512,18.944C19.423,18.632 18.518,17.905 17.776,17.549C17.331,17.341 17.168,17.326 16.841,17.475C16.485,17.638 16.455,17.697 16.574,18.202C16.648,18.499 16.708,19.478 16.708,20.383C16.708,21.645 16.633,22.298 16.351,23.307C16.04,24.464 16.025,24.657 16.203,25.088C16.441,25.652 17.331,26.69 17.583,26.69C17.687,26.69 18.043,26.483 18.385,26.23C18.934,25.83 21.056,24.969 22.169,24.702L22.569,24.613L22.569,26.75C22.569,28.842 22.569,28.887 22.243,28.961C20.848,29.317 17.464,29.673 16.426,29.599C15.149,29.495 14.853,29.599 14.853,30.193C14.853,30.608 16.07,31.884 16.752,32.196C17.331,32.448 17.361,32.73 16.871,33.992C16.114,36.01 15.046,37.746 13.562,39.319C12.434,40.521 12.938,40.996 14.482,40.18C16.604,39.067 18.088,37.449 19.334,34.882C19.676,34.17 20.165,33.264 20.403,32.864C20.789,32.226 20.818,32.092 20.67,31.691C20.581,31.439 20.507,31.231 20.536,31.217C20.551,31.202 20.996,31.038 21.516,30.875L22.466,30.549L22.362,32.938C22.302,34.244 22.154,35.891 22.035,36.603C21.62,38.904 21.62,39.349 21.961,40.462C22.495,42.228 23.148,42.688 23.95,41.857C24.87,40.892 24.855,41.159 24.884,31.217C24.914,22.016 25.063,18.499 25.478,17.059C25.805,15.931 25.612,15.545 24.454,14.967C23.608,14.551 22.569,14.403 22.02,14.625Z" style="fill-rule:nonzero;"/>
        <path d="M32.112,14.032C32.008,14.061 31.919,14.314 31.919,14.566C31.919,15.545 30.835,17.074 28.461,19.463C27.14,20.784 26.888,21.11 27.021,21.289C27.318,21.63 27.927,21.526 29.173,20.903L30.346,20.309L31.562,21.496C32.29,22.209 32.898,22.684 33.076,22.684C33.566,22.684 34.145,22.075 34.249,21.467C34.382,20.606 34.056,20.235 32.779,19.849C31.473,19.434 31.488,19.448 31.8,19.211C31.948,19.107 32.735,18.974 33.596,18.929C34.427,18.87 35.599,18.721 36.193,18.588C36.786,18.454 37.32,18.38 37.365,18.424C37.409,18.469 37.231,18.87 36.964,19.3C35.154,22.238 31.473,25.562 27.823,27.536C26.843,28.07 26.487,28.338 26.458,28.59C26.428,28.783 26.502,28.961 26.636,29.005C27.392,29.287 31.191,27.788 33.254,26.394C33.759,26.052 34.189,25.8 34.204,25.83C34.456,26.215 35.109,28.338 34.991,28.412C34.916,28.456 29.737,28.961 27.763,29.124C26.576,29.213 25.523,29.347 25.434,29.406C25.33,29.48 25.241,29.688 25.241,29.881C25.241,30.282 26.012,30.801 27.214,31.202C27.882,31.424 28.016,31.424 29.737,31.083C32.052,30.608 35.05,30.356 35.228,30.593C35.406,30.86 35.213,36.856 34.991,37.939C34.709,39.23 34.664,39.26 33.358,39.022C30.761,38.533 30.731,38.755 33.076,41.189C34.412,42.584 34.916,43.014 35.213,43.014C36.044,43.014 37.395,41.634 37.721,40.447C37.84,40.002 37.855,38.473 37.78,35.03L37.677,30.237L40.541,30.282C43.672,30.326 44.087,30.252 44.087,29.599C44.087,29.109 43.271,28.427 42.232,28.041C41.238,27.67 41.09,27.67 39.264,27.967C38.478,28.1 37.81,28.189 37.78,28.145C37.751,28.115 37.766,27.714 37.84,27.269C38.062,25.859 37.588,25.295 35.896,24.984L35.362,24.88L36.549,23.752C37.202,23.114 38.33,21.912 39.042,21.051C39.754,20.19 40.689,19.211 41.105,18.855C41.52,18.499 41.861,18.113 41.861,18.009C41.861,17.341 39.65,15.857 38.671,15.857C38.419,15.857 37.588,16.05 36.831,16.302C35.376,16.762 34.441,16.985 34.441,16.851C34.441,16.807 34.679,16.629 34.961,16.451C36.014,15.798 35.495,14.803 33.803,14.24C32.913,13.928 32.468,13.883 32.112,14.032Z" style="fill-rule:nonzero;"/>
        <path d="M31.34,22.698C30.791,22.921 27.422,23.574 26.829,23.574C26.547,23.574 26.235,23.678 26.131,23.797C25.745,24.257 27.185,25.948 27.956,25.948C28.283,25.948 28.98,25.592 30.583,24.613C32.082,23.707 32.735,23.099 32.616,22.773C32.512,22.505 31.904,22.476 31.34,22.698Z" style="fill-rule:nonzero;"/>
        <path d="M27.556,32.122C27.422,32.24 27.318,32.433 27.318,32.537C27.318,32.893 28.965,35.372 29.618,35.995C30.331,36.692 30.746,36.782 31.473,36.411C32.215,36.025 32.379,34.734 31.83,33.635C31.562,33.131 30.91,32.73 29.515,32.27C28.194,31.825 27.867,31.795 27.556,32.122Z" style="fill-rule:nonzero;"/>
    </g>
</svg>
